X:28
T:Thorn,The. CJF.028
R:Air
C:”From J J”
S:C.J.Fox MS, 1829/33, Beverley,E.Yorks.
N:Marked “From J J”. The word ” Andante” appears before
N:the first clef. the asterisked note was a2 in the MS.
N:Written in the stave at the end of the tune is “C J FOX”.
N:Sym short for symphony, meaning the instrumental “break”
N:between verses..
B:Kidson Coll.Mitchell Lib.M1805
O:England
A:East Yorkshire
Z:vmp.P J Headford 2000 & 2008
M:C
L:1/8
Q:2/4=60
K:D
“Sym:”FG|\
” Andante”A2B>AA2Bc|d2A>G F<DzA|d2dc cBA^G|\
A2a/e/a/e/ cAz”*”a|!
b2b/g/b/g/ eczc|\
a2a/f/a/f/ dBzB|g2e/c/e/c/ df AF|B/G/B/G/ E/C/E/C/D2||!
“Song”F G|(A2{c})B> AA2B c|d2A> G F DzA|d2d c cB A ^G|\
A6F G|!
A2{c}B AA2B c|(df) A> G F DzA|(^Gd) d c cB A ^G|\
A2a/e/a/e/ cAz2||!
c2zAd2A A|e2A A ff2d|”Tenderly-“cB A G FG A B|F2E> DD2z2|!
c2z{cB}Ad2A A|e2A a g fh (ad)|\
(dc) e G FG A d|(d2f/e/) (d/c/)d2za|!
“Sym:”b2b/g/b/g/ eczc|a2a/f/a/f/ dBzB|g2e/c/e/c/ df AF|\
B/G/B/G/ e/c/e/c/d2|]

